X: 1
T: the Year of Jubilo
R: march
Z: 2014 John Chambers <jc:trillian.mit.edu>
N: In a set for Cranky Ingenuity (Contra)
S: http://www.kangaroovalleyfolkfestival.com.au/USERIMAGES/Bush%20Dance%2014-05-03.pdf
M: 4/4
L: 1/8
K: D
F/E/ |\
"D"DFFA Af f/e/d/B/ | AFdF "A"E3 F/E/ |\
"D"DFFA Af f/e/d/B/ | Ad "A"e>c "D"d3 :|
|: d/c/ |\
"G"B>c dB d>e dc/B/ | "D"AFdF "A"E3 F/E/ |\
"D"DFFA Af f/e/d/B/ | Ad "A"e>c "D"d3 :|
